X: 43128
T: Wink And She'll Follow You
R: slip jig
M: 9/8
K: Adorian
|:B|A3 edB efg|A3 edB d2 B|A3 edB efg|fed edB d2:|
|:e|fef afd efg|fef afd g2 e|fef afd efg|fed edB d2:|

